X:1
T:Whom Having Not Seen, I Love
T:Whom Having Not Seen, I Love
T:Charles Hutchinson Gabriel
T:Maud Fraser Jackson, 1908
T:Public Domain Courtesy of the Cyber Hymnal™
T:Public Domain Courtesy of the Cyber Hymnal™
C:Charles Hutchinson Gabriel
Z:Public Domain
Z:Courtesy of the Cyber Hymnal™
%%score ( 1 2 ) ( 3 4 )
L:1/8
Q:1/4=90
M:6/8
K:Eb
V:1 treble 
V:2 treble 
V:3 bass 
V:4 bass 
V:1
 [EB] | [EG]2 [EG] (E>F)[EG] | [GB]2 [AB] B2 [Be] | [Ac]2 [Ae] [GB]2 [EG] | %4
w: 1.~A|friend have I * who’s|ev- er near, Who|com- forts me and|
w: 2.~In|vain may fan- * cy|strive to trace My|Sav- ior’s beau- ty|
w: 3.~The|pre- cious hope * of|that bright day Il-|lu- mines all mine|
w: 4.~With|that glad meet- * ing|e’er in view, My|pil- grim jour- ney|
 ([GB]>[FA])[EG] !fermata![DF]2 [DB] | [EG]2 [EG] (E>F)[EG] | [GB]2 [GB] !fermata![Ac]2 [Ae] | %7
w: stills * each fear, It|is my Lord * and|Sav- ior dear, Whom,|
w: and * His grace; More|fair than I * can|dream, His face, Whom,|
w: earth- * ly way; He’ll|take me home * with|Him to stay, Whom,|
w: I * pur- sue, And|try His ho- * ly|will to do, Whom,|
 [GB]<[GB][Gc] [EG]2 [B,F] | [B,E]3- [B,E]2 ||"^Refrain" [GB] | e>dc [Ge]2 [Gc] | d3- [Ad]2 [FA] | %12
w: hav- ing not seen, I|love. *||||
w: hav- ing not seen, I|love. *|He’s|gone to pre- pare a|place For me|
w: hav- ing not seen, I|love. *||||
w: hav- ing not seen, I|love. *||||
 c>de [Ad]2 [Ac] | B3- [GB]2 [GB] | e>E[EF] [EG]2 [EB] | c3 !fermata![Ae]2 [Ac] | %16
w: ||||
w: * in His home a-|bove; And I|* shall be- hold His|face, Whom, hav-|
w: ||||
w: ||||
 [GB]<[GB][Gc] [EG]2 [DF] | [B,E]3- [B,E]2 |] %18
w: ||
w: * ing not seen, I|love. *|
w: ||
w: ||
V:2
 x | x3 E2 x | x3 B2 x | x6 | x6 | x3 E2 x | x6 | x6 | x5 || x | G3 x3 | A2 A x3 | A3 x3 | %13
 G2 G x3 | G2 x4 | E2 E x3 | x6 | x5 |] %18
V:3
 [E,G,] | [E,B,]2 [E,B,] (G,>A,)[E,B,] | [E,E]2 [F,D] [G,E]2 [G,E] | [A,E]2 [C,E] [E,E]2 [E,B,] | %4
w: ~|~ ~ ~ * ~|~ ~ ~ ~|~ ~ ~ ~|
 B,2 [E,B,] !fermata![B,,B,]2 [B,,B,] | [E,B,]2 [E,B,] (G,>A,)[E,B,] | [E,E]2 [E,E] [A,E]2 [A,,C] | %7
w: ~ ~ ~ ~|~ ~ ~ * ~|~ ~ ~ ~|
 [B,,E]<[B,,E][B,,E] [B,,B,]2 [B,,A,] | [E,G,]3- [E,G,]2 || [E,E] | [E,B,]3 [E,B,]2 [E,B,] | %11
w: ~ ~ ~ ~ ~|~ *|He’s|gone to pre-|
 [F,B,]2 [F,B,] [B,F]2 [B,D] | [B,,D]3 [C,B,]2 [B,,D] | [E,E]2 [E,E] [E,E]2 [E,E] | %14
w: pare a place for|me In His|home a- bove; And|
 (B,>G,A,) [E,B,]2 [E,G,] | A,2 A, !fermata![A,,C]2 [A,,E] | [B,,E]<[B,,E][B,,E] [B,,B,]2 [B,,A,] | %17
w: I * * shall be-|hold His face, *||
 [E,G,]3- [E,G,]2 |] %18
w: |
V:4
 x | x3 E,2 x | x6 | x6 | (E,>D,) x4 | x3 E,2 x | x6 | x6 | x5 || x | x6 | x6 | x6 | x6 | E,3 x3 | %15
 A,2 A, x3 | x6 | x5 |] %18

